;FLAVOR:Marlin
;TIME:4313
;Filament used: 4.7225m
;Layer height: 0.3
;Generated with Cura_SteamEngine 3.0.3
M190 S70
M104 S210
M109 S210
M82 ; absolute extrusion mode
G21 ;metric values
G90 ;absolute positioning
M82 ;set extruder to absolute mode
M107 ;start with the fan off
G28 X0 Y0 ;move X/Y to min endstops
G28 Z0 ;move Z to min endstops
G1 Z15.0 F9000 ;move the platform down 15mm
G92 E0 ;zero the extruded length
G1 F200 E3 ;extrude 3mm of feed stock
G92 E0 ;zero the extruded length again
G1 F9000
;Put printing message on LCD screen
M117 Printing...
;LAYER_COUNT:67
;LAYER:0
M107
G0 F2400 X84.946 Y85.237 Z0.3
;TYPE:SKIRT
G1 F1200 X85.307 Y84.886 E0.02512
G1 X89.642 Y81.228 E0.3081
G1 X93.608 Y77.473 E0.58059
G1 X95.49 Y75.533 E0.71543
G1 X99.144 Y71.432 E0.98946
G1 X100.838 Y69.363 E1.12287
G1 X101.208 Y68.974 E1.14966
G1 X101.631 Y68.645 E1.17639
G1 X102.098 Y68.382 E1.20313
G1 X102.6 Y68.192 E1.22991
G1 X103.124 Y68.078 E1.25666
G1 X103.623 Y68.043 E1.28162
G1 X128.364 Y68.036 E2.51595
G1 X128.899 Y68.076 E2.54272
G1 X129.422 Y68.195 E2.56948
G1 X129.921 Y68.39 E2.59621
G1 X130.386 Y68.657 E2.62296
G1 X130.806 Y68.99 E2.6497
G1 X131.172 Y69.382 E2.67646
G1 X131.476 Y69.824 E2.70322
G1 X131.711 Y70.307 E2.73002
G1 X131.871 Y70.818 E2.75673
G1 X131.953 Y71.348 E2.78349
G1 X131.965 Y71.636 E2.79787
G1 X131.964 Y96.373 E4.032
G1 X131.924 Y96.908 E4.05877
G1 X131.779 Y97.512 E4.08976
G1 X130.19 Y102.276 E4.34031
G1 X128.736 Y107.563 E4.61387
G1 X128.12 Y110.232 E4.75053
G1 X127.602 Y112.829 E4.88264
G1 X126.75 Y118.271 E5.15745
G1 X126.212 Y123.705 E5.42988
G1 X126.061 Y126.389 E5.564
G1 X125.974 Y130.497 E5.769
G1 X125.964 Y142.36 E6.36084
G1 X125.924 Y142.895 E6.38761
G1 X125.804 Y143.418 E6.41438
G1 X125.608 Y143.917 E6.44113
G1 X125.341 Y144.382 E6.46788
G1 X125.007 Y144.801 E6.49461
G1 X124.615 Y145.167 E6.52137
G1 X124.172 Y145.47 E6.54814
G1 X123.69 Y145.704 E6.57487
G1 X123.178 Y145.864 E6.60164
G1 X122.648 Y145.946 E6.62839
G1 X122.111 Y145.948 E6.65518
G1 X121.581 Y145.871 E6.6819
G1 X121.067 Y145.715 E6.7087
G1 X120.56 Y145.472 E6.73675
G1 X117.662 Y143.793 E6.90385
G1 X112.81 Y141.268 E7.17673
G1 X107.809 Y139.014 E7.4504
G1 X105.278 Y137.998 E7.58647
G1 X102.776 Y137.079 E7.71945
G1 X97.57 Y135.41 E7.9922
G1 X91.5 Y133.856 E8.3048
G1 X90.992 Y133.684 E8.33155
G1 X90.515 Y133.439 E8.35831
G1 X90.08 Y133.126 E8.38504
G1 X89.848 Y132.914 E8.40072
G1 X65.095 Y108.175 E10.14669
G1 X64.745 Y107.769 E10.17343
G1 X64.459 Y107.315 E10.2002
G1 X64.244 Y106.824 E10.22694
G1 X64.104 Y106.306 E10.25371
G1 X64.043 Y105.774 E10.28043
G1 X64.061 Y105.238 E10.30718
G1 X64.159 Y104.71 E10.33398
G1 X64.334 Y104.203 E10.36073
G1 X64.583 Y103.728 E10.38749
G1 X64.899 Y103.295 E10.41423
G1 X65.276 Y102.914 E10.44098
G1 X65.502 Y102.733 E10.45542
G1 X71.439 Y98.349 E10.82362
G1 X75.597 Y94.839 E11.09509
G1 X79.572 Y91.08 E11.36804
G1 X81.438 Y89.157 E11.50172
G1 X84.946 Y85.237 E11.76417
G0 F2400 X85.244 Y85.503
G1 F1200 X85.565 Y85.191 E11.7865
G1 X89.91 Y81.524 E12.07015
G1 X93.9 Y77.748 E12.34422
G1 X95.783 Y75.807 E12.47914
G1 X99.448 Y71.693 E12.75402
G1 X101.148 Y69.616 E12.88793
G1 X101.498 Y69.252 E12.91312
G1 X101.901 Y68.947 E12.93834
G1 X102.347 Y68.709 E12.96356
G1 X102.825 Y68.544 E12.98879
G1 X103.323 Y68.457 E13.01401
G1 X103.623 Y68.443 E13.02899
G1 X128.364 Y68.436 E14.26333
G1 X128.868 Y68.476 E14.28855
G1 X129.36 Y68.594 E14.31379
G1 X129.826 Y68.789 E14.33899
G1 X130.256 Y69.055 E14.36422
G1 X130.639 Y69.385 E14.38944
G1 X130.965 Y69.771 E14.41465
G1 X131.227 Y70.204 E14.4399
G1 X131.417 Y70.673 E14.46514
G1 X131.53 Y71.165 E14.49033
G1 X131.565 Y71.636 E14.51389
G1 X131.564 Y96.373 E15.74803
G1 X131.524 Y96.877 E15.77325
G1 X131.4 Y97.386 E15.79939
G1 X129.802 Y102.176 E16.05131
G1 X128.348 Y107.464 E16.32492
G1 X127.732 Y110.136 E16.46172
G1 X127.204 Y112.781 E16.59629
G1 X126.354 Y118.206 E16.87024
G1 X125.814 Y123.664 E17.14387
G1 X125.661 Y126.388 E17.27999
G1 X125.574 Y130.47 E17.48368
G1 X125.564 Y142.36 E18.07688
G1 X125.524 Y142.864 E18.1021
G1 X125.404 Y143.355 E18.12732
G1 X125.209 Y143.821 E18.15252
G1 X124.943 Y144.251 E18.17775
G1 X124.613 Y144.634 E18.20297
G1 X124.226 Y144.96 E18.22822
G1 X123.793 Y145.22 E18.25341
G1 X123.324 Y145.41 E18.27866
G1 X122.831 Y145.523 E18.30389
G1 X122.327 Y145.557 E18.32909
G1 X121.823 Y145.511 E18.35434
G1 X121.333 Y145.387 E18.37956
G1 X120.76 Y145.126 E18.41097
G1 X117.85 Y143.441 E18.57874
G1 X112.98 Y140.905 E18.85267
G1 X107.974 Y138.649 E19.12661
G1 X105.429 Y137.628 E19.26342
G1 X102.896 Y136.697 E19.39806
G1 X97.675 Y135.024 E19.67158
G1 X91.599 Y133.468 E19.98449
G1 X91.121 Y133.304 E20.00971
G1 X90.674 Y133.067 E20.03495
G1 X90.131 Y132.631 E20.06969
G1 X65.378 Y107.892 E21.81565
G1 X65.05 Y107.508 E21.84085
G1 X64.786 Y107.076 E21.86611
G1 X64.594 Y106.609 E21.8913
G1 X64.477 Y106.117 E21.91653
G1 X64.44 Y105.613 E21.94174
G1 X64.483 Y105.109 E21.96698
G1 X64.604 Y104.618 E21.99221
G1 X64.801 Y104.153 E22.0174
G1 X65.069 Y103.724 E22.04264
G1 X65.401 Y103.343 E22.06785
G1 X65.739 Y103.055 E22.09
G1 X71.693 Y98.659 E22.45924
G1 X75.856 Y95.144 E22.73107
G1 X79.85 Y91.367 E23.00532
G1 X81.729 Y89.432 E23.13988
G1 X85.244 Y85.503 E23.40289
G1 F3000 E19.40289
G0 F2400 X89.092 Y86.961
G0 X89.092 Y88.233
G0 X89.166 Y88.264
G0 X89.074 Y88.226
;TYPE:WALL-INNER
G1 F3000 E23.40289
G1 F1200 X89.554 Y88.226 E23.42684
G1 X89.556 Y88.226 E23.42694
G1 X111.774 Y88.226 E24.5354
G1 X111.774 Y110.444 E25.64386
G1 X111.774 Y110.446 E25.64396
G1 X111.774 Y110.926 E25.66791
G1 X111.434 Y110.586 E25.68081
G1 X89.414 Y88.566 E27.23444
G1 X89.074 Y88.226 E27.24735
G0 F2400 X89.166 Y88.264
G0 X103.35 Y92.528
G0 X103.441 Y92.569
G1 F1200 X103.292 Y92.974 E27.26888
G1 X103.202 Y93.393 E27.29026
G1 X103.173 Y93.824 E27.31181
G1 X103.206 Y94.252 E27.33323
G1 X103.298 Y94.671 E27.35463
G1 X103.45 Y95.074 E27.37612
G1 X103.657 Y95.45 E27.39753
G1 X103.915 Y95.793 E27.41895
G1 X104.22 Y96.097 E27.44043
G1 X104.566 Y96.354 E27.46193
G1 X104.943 Y96.559 E27.48334
G1 X105.347 Y96.708 E27.50482
G1 X105.769 Y96.798 E27.52635
G1 X106.198 Y96.827 E27.5478
G1 X106.627 Y96.794 E27.56927
G1 X107.045 Y96.702 E27.59062
G1 X107.449 Y96.55 E27.61216
G1 X107.825 Y96.342 E27.6336
G1 X108.167 Y96.085 E27.65494
G1 X108.472 Y95.78 E27.67646
G1 X108.728 Y95.434 E27.69793
G1 X108.933 Y95.057 E27.71934
G1 X109.082 Y94.653 E27.74082
G1 X109.173 Y94.231 E27.76236
G1 X109.2 Y93.802 E27.78381
G1 X109.169 Y93.374 E27.80522
G1 X109.075 Y92.955 E27.82664
G1 X108.924 Y92.551 E27.84816
G1 X108.717 Y92.175 E27.86957
G1 X108.46 Y91.833 E27.89091
G1 X108.154 Y91.528 E27.91247
G1 X107.809 Y91.272 E27.9339
G1 X107.431 Y91.067 E27.95535
G1 X107.027 Y90.918 E27.97684
G1 X106.606 Y90.827 E27.99833
G1 X106.176 Y90.8 E28.01982
G1 X105.749 Y90.831 E28.04118
G1 X105.329 Y90.925 E28.06265
G1 X104.926 Y91.076 E28.08412
G1 X104.55 Y91.283 E28.10554
G1 X104.207 Y91.54 E28.12692
G1 X103.903 Y91.846 E28.14844
G1 X103.646 Y92.191 E28.1699
G1 X103.441 Y92.569 E28.19136
G0 F2400 X103.35 Y92.528
G0 X103.873 Y91.82
G0 X104.529 Y91.25
G0 X105.318 Y90.887
G0 X105.699 Y90.74
G0 X105.807 Y91.228
;TYPE:WALL-OUTER
G1 F1200 X105.443 Y91.309 E28.20996
G1 X105.094 Y91.44 E28.22856
G1 X104.768 Y91.62 E28.24714
G1 X104.47 Y91.843 E28.26571
G1 X104.207 Y92.108 E28.28433
G1 X103.984 Y92.407 E28.30294
G1 X103.806 Y92.734 E28.32152
G1 X103.677 Y93.085 E28.34017
G1 X103.599 Y93.449 E28.35874
G1 X103.574 Y93.822 E28.3774
G1 X103.603 Y94.193 E28.39596
G1 X103.683 Y94.557 E28.41455
G1 X103.814 Y94.906 E28.43315
G1 X103.994 Y95.232 E28.45173
G1 X104.218 Y95.53 E28.47033
G1 X104.482 Y95.793 E28.48892
G1 X104.782 Y96.016 E28.50757
G1 X105.109 Y96.194 E28.52615
G1 X105.459 Y96.323 E28.54476
G1 X105.824 Y96.401 E28.56338
G1 X106.196 Y96.426 E28.58198
G1 X106.568 Y96.397 E28.60059
G1 X106.931 Y96.317 E28.61914
G1 X107.281 Y96.186 E28.63778
G1 X107.607 Y96.006 E28.65636
G1 X107.904 Y95.782 E28.67492
G1 X108.168 Y95.518 E28.69355
G1 X108.39 Y95.218 E28.71217
G1 X108.568 Y94.891 E28.73074
G1 X108.697 Y94.541 E28.74935
G1 X108.776 Y94.176 E28.76798
G1 X108.799 Y93.804 E28.78658
G1 X108.772 Y93.432 E28.80518
G1 X108.691 Y93.069 E28.82374
G1 X108.56 Y92.719 E28.84238
G1 X108.38 Y92.393 E28.86096
G1 X108.157 Y92.096 E28.87949
G1 X107.892 Y91.832 E28.89815
G1 X107.593 Y91.61 E28.91673
G1 X107.266 Y91.432 E28.93531
G1 X106.915 Y91.303 E28.95397
G1 X106.551 Y91.224 E28.97255
G1 X106.178 Y91.201 E28.99119
G1 X105.807 Y91.228 E29.00975
G0 F2400 X105.612 Y91.271
G0 X105.504 Y90.784
G0 X106.611 Y90.788
G0 X107.447 Y91.031
G0 X108.18 Y91.498
G0 X108.75 Y92.154
G0 X109.113 Y92.944
G0 X111.736 Y110.834
G0 X112.174 Y111.41
G1 F1200 X112.174 Y111.412 E29.00985
G1 X112.174 Y111.892 E29.0338
G1 X111.834 Y111.552 E29.0467
G1 X88.448 Y88.166 E30.69671
G1 X88.108 Y87.826 E30.7207
G1 X88.588 Y87.826 E30.73359
G1 X88.59 Y87.826 E30.73369
G1 X112.174 Y87.826 E31.9103
G1 X112.174 Y111.41 E33.08691
G0 F2400 X112.174 Y111.412
G0 X112.174 Y111.61
G0 X111.736 Y110.834
G0 X111.374 Y109.962
;TYPE:WALL-INNER
G1 F1200 X90.038 Y88.626 E34.59228
G1 X111.374 Y88.626 E35.65673
G1 X111.374 Y109.962 E36.72119
G0 F2400 X107.159 Y97.086
G1 F1200 X107.617 Y96.914 E36.7456
G1 X108.043 Y96.678 E36.7699
G1 X108.429 Y96.387 E36.79401
G1 X108.776 Y96.042 E36.81843
G1 X109.066 Y95.65 E36.84275
G1 X109.299 Y95.223 E36.86702
G1 X109.468 Y94.765 E36.89138
G1 X109.571 Y94.286 E36.91582
G1 X109.6 Y93.8 E36.94011
G1 X109.565 Y93.316 E36.96432
G1 X109.459 Y92.841 E36.9886
G1 X109.288 Y92.383 E37.01299
G1 X109.053 Y91.957 E37.03726
G1 X108.762 Y91.569 E37.06146
G1 X108.416 Y91.224 E37.08584
G1 X108.025 Y90.934 E37.11012
G1 X107.597 Y90.701 E37.13444
G1 X107.139 Y90.532 E37.15879
G1 X106.661 Y90.429 E37.18319
G1 X106.174 Y90.4 E37.20753
G1 X105.691 Y90.435 E37.23169
G1 X105.215 Y90.541 E37.25602
G1 X104.758 Y90.712 E37.28036
G1 X104.332 Y90.947 E37.30463
G1 X103.943 Y91.238 E37.32887
G1 X103.599 Y91.584 E37.35321
G1 X103.308 Y91.975 E37.37753
G1 X103.075 Y92.403 E37.40184
G1 X102.906 Y92.862 E37.42624
G1 X102.804 Y93.337 E37.45048
G1 X102.771 Y93.826 E37.47493
G1 X102.81 Y94.31 E37.49916
G1 X102.914 Y94.785 E37.52342
G1 X103.086 Y95.242 E37.54778
G1 X103.321 Y95.668 E37.57205
G1 X103.613 Y96.057 E37.59632
G1 X103.958 Y96.401 E37.62062
G1 X104.35 Y96.692 E37.64498
G1 X104.777 Y96.925 E37.66925
G1 X105.235 Y97.094 E37.6936
G1 X105.713 Y97.196 E37.71799
G1 X106.2 Y97.229 E37.74234
G1 X106.685 Y97.19 E37.76661
G1 X107.159 Y97.086 E37.79082
G0 F2400 X108.502 Y95.806
G0 X108.969 Y95.073
G0 X111.193 Y89.131
;TYPE:SKIN
G1 F1200 X110.867 Y88.806 E37.81379
G0 F2400 X110.302 Y88.806
G1 F1200 X111.193 Y89.697 E37.87666
G1 X111.263 Y89.767
G0 F2400 X111.193 Y90.262
G1 F1200 X109.736 Y88.806 E37.97942
G1 X109.666 Y88.736
G0 F2400 X109.17 Y88.806
G1 F1200 X111.193 Y90.828 E38.12212
G1 X111.263 Y90.898
G0 F2400 X111.193 Y91.394
G1 F1200 X108.605 Y88.806 E38.30472
G1 X108.535 Y88.736
G0 F2400 X108.039 Y88.806
G1 F1200 X111.193 Y91.959 E38.52721
G1 X111.263 Y92.029
G0 F2400 X111.193 Y92.525
G1 F1200 X107.473 Y88.806 E38.78964
G1 X107.403 Y88.736
G0 F2400 X106.908 Y88.806
G1 F1200 X111.193 Y93.091 E39.09197
G1 X111.263 Y93.161
G0 F2400 X111.193 Y93.657
G1 F1200 X106.342 Y88.806 E39.43424
G1 X106.272 Y88.736
G0 F2400 X105.776 Y88.806
G1 F1200 X107.41 Y90.439 E39.54949
G1 X107.48 Y90.509
G0 F2400 X106.652 Y90.248
G1 F1200 X105.211 Y88.806 E39.65119
G1 X105.141 Y88.736
G0 F2400 X104.645 Y88.806
G1 F1200 X106.066 Y90.227 E39.75145
G1 X106.136 Y90.297
G0 F2400 X105.554 Y90.281
G1 F1200 X104.079 Y88.806 E39.85552
G1 X104.009 Y88.736
G0 F2400 X103.514 Y88.806
G1 F1200 X105.099 Y90.391 E39.96735
G1 X105.169 Y90.461
G0 F2400 X104.687 Y90.545
G1 F1200 X102.948 Y88.806 E40.09005
G1 X102.878 Y88.736
G0 F2400 X102.382 Y88.806
G1 F1200 X104.322 Y90.746 E40.22693
G1 X104.392 Y90.816
G0 F2400 X103.989 Y90.978
G1 F1200 X101.817 Y88.806 E40.38017
G1 X101.747 Y88.736
G0 F2400 X101.251 Y88.806
G1 F1200 X103.685 Y91.24 E40.5519
G1 X103.755 Y91.31
G0 F2400 X103.412 Y91.532
G1 F1200 X100.685 Y88.806 E40.74427
G1 X100.615 Y88.736
G0 F2400 X100.119 Y88.806
G1 F1200 X103.171 Y91.857 E40.95957
G1 X103.241 Y91.927
G0 F2400 X102.968 Y92.22
G1 F1200 X99.554 Y88.806 E41.20045
G1 X99.484 Y88.736
G0 F2400 X98.988 Y88.806
G1 F1200 X102.802 Y92.62 E41.46955
G1 X102.872 Y92.69
G0 F2400 X102.678 Y93.062
G1 F1200 X98.422 Y88.806 E41.76983
G1 X98.352 Y88.736
G0 F2400 X97.857 Y88.806
G1 F1200 X102.608 Y93.557 E42.10504
G1 X102.678 Y93.627
G0 F2400 X102.614 Y94.129
G1 F1200 X97.291 Y88.806 E42.48061
G1 X97.221 Y88.736
G0 F2400 X96.725 Y88.806
G1 F1200 X102.736 Y94.817 E42.90472
G1 X102.806 Y94.887
G0 F2400 X103.316 Y95.962
G1 F1200 X96.16 Y88.806 E43.40961
G1 X96.09 Y88.736
G0 F2400 X95.594 Y88.806
G1 F1200 X111.193 Y104.405 E44.5102
G1 X111.263 Y104.475
G0 F2400 X111.193 Y104.97
G1 F1200 X95.028 Y88.806 E45.6507
G1 X94.958 Y88.736
G0 F2400 X94.463 Y88.806
G1 F1200 X111.193 Y105.536 E46.83109
G1 X111.263 Y105.606
G0 F2400 X111.193 Y106.102
G1 F1200 X93.897 Y88.806 E48.05141
G1 X93.827 Y88.736
G0 F2400 X93.331 Y88.806
G1 F1200 X111.193 Y106.667 E49.31164
G1 X111.263 Y106.737
G0 F2400 X111.193 Y107.233
G1 F1200 X92.766 Y88.806 E50.61176
G1 X92.696 Y88.736
G0 F2400 X92.2 Y88.806
G1 F1200 X111.193 Y107.799 E51.95182
G1 X111.263 Y107.869
G0 F2400 X111.193 Y108.364
G1 F1200 X91.634 Y88.806 E53.33178
G1 X91.564 Y88.736
G0 F2400 X91.068 Y88.806
G1 F1200 X111.193 Y108.93 E54.75167
G1 X111.263 Y109
G0 F2400 X111.191 Y109.494
G1 F1200 X90.504 Y88.807 E56.21125
G1 X90.434 Y88.737
G0 F2400 X104.042 Y96.688
G1 F1200 X111.193 Y103.839 E56.71579
G1 X111.263 Y103.909
G0 F2400 X111.193 Y103.273
G1 F1200 X105.187 Y97.268 E57.13951
G1 X105.117 Y97.198
G0 F2400 X105.873 Y97.388
G1 F1200 X111.193 Y102.707 E57.51483
G1 X111.263 Y102.777
G0 F2400 X111.193 Y102.142
G1 F1200 X106.441 Y97.39 E57.85011
G1 X106.371 Y97.32
G0 F2400 X106.935 Y97.319
G1 F1200 X111.193 Y101.576 E58.1505
G1 X111.263 Y101.646
G0 F2400 X111.193 Y101.01
G1 F1200 X107.378 Y97.196 E58.41964
G1 X107.308 Y97.126
G0 F2400 X107.777 Y97.029
G1 F1200 X111.193 Y100.445 E58.66065
G1 X111.263 Y100.515
G0 F2400 X111.193 Y99.879
G1 F1200 X108.141 Y96.827 E58.87599
G1 X108.071 Y96.757
G0 F2400 X108.464 Y96.585
G1 F1200 X111.193 Y99.313 E59.0685
G1 X111.263 Y99.383
G0 F2400 X111.193 Y98.748
G1 F1200 X108.758 Y96.313 E59.2403
G1 X108.688 Y96.243
G0 F2400 X109.021 Y96.01
G1 F1200 X111.193 Y98.182 E59.39355
G1 X111.263 Y98.252
G0 F2400 X111.193 Y97.616
G1 F1200 X109.254 Y95.677 E59.53036
G1 X109.184 Y95.607
G0 F2400 X109.454 Y95.312
G1 F1200 X111.193 Y97.051 E59.65305
G1 X111.263 Y97.121
G0 F2400 X111.193 Y96.485
G1 F1200 X109.608 Y94.9 E59.76488
G1 X109.538 Y94.83
G0 F2400 X109.719 Y94.446
G1 F1200 X111.193 Y95.919 E59.86884
G1 X111.263 Y95.989
G0 F2400 X111.193 Y95.354
G1 F1200 X109.771 Y93.932 E59.96917
G1 X109.701 Y93.862
G0 F2400 X109.745 Y93.34
G1 F1200 X111.193 Y94.788 E60.07134
G1 X111.263 Y94.858
G0 F2400 X111.193 Y94.222
G1 F1200 X109.552 Y92.582 E60.18708
G1 X109.482 Y92.512
G1 F3000 E56.18708
G0 F2400 X111.76 Y88.24
G0 X111.76 Y86.961
G0 X115.53 Y84.471
G0 X116.438 Y83.562
G0 X120.155 Y80.172
G0 X120.22 Y80.097
;TYPE:WALL-INNER
G1 F3000 E60.18708
G1 F1200 X120.566 Y80.354 E60.20859
G1 X120.943 Y80.559 E60.23
G1 X121.347 Y80.708 E60.25148
G1 X121.769 Y80.798 E60.27301
G1 X122.198 Y80.827 E60.29446
G1 X122.627 Y80.794 E60.31593
G1 X123.045 Y80.702 E60.33728
G1 X123.449 Y80.55 E60.35881
G1 X123.825 Y80.342 E60.38025
G1 X124.167 Y80.085 E60.40159
G1 X124.472 Y79.78 E60.42311
G1 X124.728 Y79.434 E60.44459
G1 X124.933 Y79.057 E60.466
G1 X125.082 Y78.653 E60.48748
G1 X125.173 Y78.231 E60.50902
G1 X125.2 Y77.802 E60.53046
G1 X125.169 Y77.374 E60.55187
G1 X125.075 Y76.955 E60.57329
G1 X124.924 Y76.551 E60.59481
G1 X124.717 Y76.175 E60.61623
G1 X124.46 Y75.833 E60.63757
G1 X124.154 Y75.528 E60.65912
G1 X123.809 Y75.272 E60.68056
G1 X123.431 Y75.067 E60.70201
G1 X123.027 Y74.918 E60.72349
G1 X122.606 Y74.827 E60.74498
G1 X122.176 Y74.8 E60.76648
G1 X121.749 Y74.831 E60.78784
G1 X121.329 Y74.925 E60.80931
